X:182
T:score260
L:1/8
Q:1/4=96
M:4/4
I:linebreak $
K:D
 A4 (d2 f2) | b2 (3(bc'd' (3f'e'd' (3c'd'_b) | !>!a2 (!>!a>!>!g) (!>!g>!>!f) (!>!f>!>!^e) |$ %3
 !>!f4 (3(!>!B!>!d!>!c (3!>!e!>!d!>!B) | (B2 A2-) (3A(CE A>G) | !>!F4 (3(B,DC (3EDB,) |$ %6
 (B,2 (3:2:2A,2 ^A, (3:2:2B,2 ^B, (3CFE | D2) z2 z4 |] %8
